X: 032
T: Miss Hope's Strathspey
C: by John Pringle
B: John Pringle "Collection of Reels Strathspeys & Jigs", 1801 p.3#2
Z: 2011 John Chambers <jc:trillian.mit.edu>
R: strathspey
M: C
L: 1/8
K: D
V: 1
A, | [DA,]<[DA,] ~F2 {F}E>~DB,>F | G<G~G>A TB>AF<d | A<F~F>D GBFD | E<B,~B,C D3 :|
A  | d>dAd FdDd | d>dfd {c}~B2Bc | f<dcA BdAF | G>BAc (3dAG (3FED |
     d>dAd FdDd | d>dfd {c}~B2Bc | d>fcA BdAF | E<B,B,C D3 |]
V: 2 clef=bass middle=d
z | d2D2 A2G2 | G2G2 g2d2 | D2d2 e2d2 | g2a2 d2D :|
z | D2d2 D2d2 | D2d2 g2G2 | d2a2 g2f2 | g2a2 d2z2 |
    D2d2 D2d2 | D2d2 g2G2 | d2a2 g2f2 | g2a2 d2D |]

%%sep 2 1 500

